assets/icon/aivoice_icon.svg

<svg xmlns="http://www.w3.org/2000/svg" fill="#fff" viewBox="0 0 256 256"><circle fill="#000" r="128" cy="128" cx="128"/><g transform="matrix(1.0603,0,0,1.0603,39,51)"><path d="M0 81.875 41.5 0h8L91 81.875H79.5l-34-67.078-34 67.078M131 82V0h10.25v82"/><circle cx="110.25" cy="75.75" r="6.125"/><circle cx="161.75" cy="75.75" r="6.125"/></g><g transform="matrix(.4835,0,0,.4835,-44,154)"><path d="m171.875 0 41.5 81.875h8L262.875 0h-11.5l-34 67.078-34-67.078M351.75 82V0H362v82m82.524-32.813a30.662 30.662 0 0 1-29.649 22.563A30.673 30.673 0 0 1 384.125 41a30.673 30.673 0 0 1 30.75-30.75 30.662 30.662 0 0 1 29.649 22.563h10.526C451.238 14.13 434.656 0 414.875 0c-22.583 0-41 18.417-41 41s18.417 41 41 41c19.781 0 36.363-14.13 40.175-32.813M466.5 10.25V0H540v10.25m-73.5 35.875v-10.25h50v10.25M466.5 82V71.75H540V82"/><circle fill="none" stroke="#fff" stroke-width="10.25px" cx="299" cy="41" r="35.875"/></g></svg>

<svg xmlns="http://www.w3.org/2000/svg" fill="#fff" width="256" height="256"><circle fill="#000" r="128" cy="128" cx="128"/><g transform="matrix(1.0603,0,0,1.0603,39,51)"><path d="M0,81.875 41.5,0H49.5L91,81.875H79.5L45.5,14.797 11.5,81.875M131,82V0H141.25V82"/><circle cx="110.25" cy="75.75" r="6.125"/><circle cx="161.75" cy="75.75" r="6.125"/></g><g transform="matrix(.4835,0,0,.4835,-44,154)"><path d="M171.875,0 213.375,81.875H221.375L262.875,0H251.375L217.375,67.078 183.375,0M351.75,82V0H362V82M444.524,49.187C440.959,62.226 429.079,71.75 414.875,71.75 397.831,71.75 384.125,58.043 384.125,41 384.125,23.957 397.831,10.25 414.875,10.25 429.079,10.25 440.959,19.774 444.524,32.813H455.05C451.238,14.1301 434.656,0 414.875,0 392.292,0 373.875,18.417 373.875,41 373.875,63.583 392.292,82 414.875,82 434.656,82 451.238,67.87 455.05,49.187M466.5,10.25V0H540V10.25M466.5,46.125V35.875H516.5V46.125M466.5,82V71.75H540V82"/><circle fill="none" stroke="#fff" stroke-width="10.25px" cx="299" cy="41" r="35.875"/></g></svg>
